src/assets/svg/play.svg

<svg aria-hidden="true" focusable="false" data-prefix="fas" data-icon="play-circle" role="img" xmlns="http://www.w3.org/2000/svg" viewBox="0 0 512 512" class="svg-inline--fa fa-play-circle fa-w-16 fa-3x"><path fill="currentColor" d="M256 8C119 8 8 119 8 256s111 248 248 248 248-111 248-248S393 8 256 8zm115.7 272l-176 101c-15.8 8.8-35.7-2.5-35.7-21V152c0-18.4 19.8-29.8 35.7-21l176 107c16.4 9.2 16.4 32.9 0 42z" class=""></path></svg>

<?xml version="1.0" encoding="UTF-8" standalone="no"?><!-- Generator: Gravit.io --><svg xmlns="http://www.w3.org/2000/svg" xmlns:xlink="http://www.w3.org/1999/xlink" style="isolation:isolate" viewBox="0 0 512 512" width="512pt" height="512pt"><defs><clipPath id="_clipPath_vsQs3DDoAATfCXON8vvmXVVDhNjAAIBn"><rect width="512" height="512"/></clipPath></defs><g clip-path="url(#_clipPath_vsQs3DDoAATfCXON8vvmXVVDhNjAAIBn)"><path d=" M 256 8 C 119 8 8 119 8 256 C 8 393 119 504 256 504 C 393 504 504 393 504 256 C 504 119 393 8 256 8 Z  M 371.7 280 L 195.7 381 C 179.9 389.8 160 378.5 160 360 L 160 152 C 160 133.6 179.8 122.2 195.7 131 L 371.7 238 C 388.1 247.2 388.1 270.9 371.7 280 Z " fill="rgb(255,255,255)"/></g></svg>
